X:119
T: DER BERGMANN IM SCHWARZEN GEWAND
N: B0608
O: Europa, Mitteleuropa, Deutschland, Deistergebirge, Bantorf
R: Staende -, Bergmanns - Lied
M: 3/8
L: 1/16
K: F
C2 | C2D3A, | C2D2
A,C | C2B,2E2 | G,4
G,A, | B,2E3B, | B,2
E3D | C2F,2G,2 | A,4
C2 | C2D3A, | C2D2
A,C | C2B,2E2 | G,4
F2 | E2D3E | D2C3
C | C2D2E2 | F4
G,2 | G,3=B,B,2 | C4
C2 | D2D2D2 | E4
EG | G2F3C | E2D3
B, | D3CD2 | C4
EG | G2F2C2 | D2D3
F | E3DE2 | F4

